src/assets/img/icons/studyPackDisabled.svg

<svg width="16" height="16" viewBox="0 0 16 16" fill="none" xmlns="http://www.w3.org/2000/svg">
<path d="M6.7001 1.68669L2.68677 4.30669C1.4001 5.14669 1.4001 7.02669 2.68677 7.86669L6.7001 10.4867C7.4201 10.96 8.60677 10.96 9.32677 10.4867L13.3201 7.86669C14.6001 7.02669 14.6001 5.15336 13.3201 4.31336L9.32677 1.69336C8.60677 1.21336 7.4201 1.21336 6.7001 1.68669Z" stroke="#D3D3D3" stroke-linecap="round" stroke-linejoin="round"/>
<path d="M3.75343 8.71997L3.74677 11.8466C3.74677 12.6933 4.4001 13.6 5.2001 13.8666L7.32677 14.5733C7.69343 14.6933 8.3001 14.6933 8.67343 14.5733L10.8001 13.8666C11.6001 13.6 12.2534 12.6933 12.2534 11.8466V8.7533" stroke="#D3D3D3" stroke-linecap="round" stroke-linejoin="round"/>
<path d="M14.2668 10V6" stroke="#D3D3D3" stroke-linecap="round" stroke-linejoin="round"/>
</svg>

<svg width="16" height="16" fill="none" xmlns="http://www.w3.org/2000/svg"><path d="m6.7 1.687-4.013 2.62a2.124 2.124 0 0 0 0 3.56l4.013 2.62c.72.473 1.907.473 2.627 0l3.993-2.62a2.124 2.124 0 0 0 0-3.554l-3.993-2.62c-.72-.48-1.907-.48-2.627-.006Z" stroke="#D3D3D3" stroke-linecap="round" stroke-linejoin="round"/><path d="m3.753 8.72-.006 3.127c0 .846.653 1.753 1.453 2.02l2.127.706c.366.12.973.12 1.346 0l2.127-.706c.8-.267 1.453-1.174 1.453-2.02V8.753M14.267 10V6" stroke="#D3D3D3" stroke-linecap="round" stroke-linejoin="round"/></svg>
